!!!SOCIAL_FUNCTION:	bird dance songs
!!!PDT:	1956
!!!OTL: No_139_Sandhill_Crane_Dance_Song_(c).krn
!!!LANG: Non-Tone
!!!LING_GROUP: Muskogean
!!!REG: Florida
**kern
*staff1
=1-
*clefF4
*k[]
*M5/8
2r
16r
16B\
=2!|:
8.B\L
16B\K
8A\
8F\J
8r
=3
8.E\L
16E\K
8E\
8E\J
8r
=4
8.E\L
16E\K
8E\J
4E\
=5
8F\L
16.E\L
32C\JK
8C\
8F\J
8r
=6
8.E\L
16E\K
8E\
8E\J
8r
=7
8.E\L
16E\K
8E\J
4E\
=8||
*M7/8
32F\LLK
[16.E\J
8E\]
8F\
16.E\L
32C\JK
8C\
8F\J
8r
=9||
*M5/8
8.E\L
16E\K
8E\
8E\J
8r
=10
8.E\L
16E\K
8E\J
4E\
=11||
*M7/8
8F\L
16.E\L
32E\K
16F\
[16E\
16.E\]
32C\JK
8C\
8F\J
8r
=12||
*M5/8
8.E\L
16E\K
8E\
8E\J
8r
=13
8.E\L
16E\K
8E\J
4E\
=14
16E\LL
16E\J
8E\J
4E\
8r
*-
